X:0269
T:Major John Bruce's Quick Step.
M:6/8
L:1/8
Q:3/8=86
I: :: ::
Z:Jack Campin * www.campin.me.uk * 2009
K:G
D   |G2G G2g|ege dBG|cde dBG|EAA A2B |
     G2G G2g|ege dBG|ABc BAG|EGG G2 :|
B/c/|d2g e2g|d2g dBG|c2e dBG|EAA A>Bc|
     dgg egg|dgg dBG|ABc BAG|EGG G2 :|

